X:357
T:Jenny Sutton
R:Reel
B:The Athole Collection
M:C|
L:1/8
K:A
E|A/A/A Ac ecec|A/A/A Ac dB=BG|A/A/A Ac ecec|efdB c2A:|
g|aAaA gAgA|fgaf ecBA|aAaA gAgA|fgag f2eg|acFa gBEg|fADf ecdB|
A/A/A Ac ecfd|caBg A2A||

